src/static/img/icons/quote.svg

<svg width="24" height="24" viewBox="0 0 24 24" fill="none" xmlns="http://www.w3.org/2000/svg">
<g opacity="0.5">
<path d="M3 21C6 21 10 20 10 13V5.00003C10 3.75003 9.244 2.98303 8 3.00003H4C2.75 3.00003 2 3.75003 2 4.97203V11C2 12.25 2.75 13 4 13C5 13 5 13 5 14V15C5 16 4 17 3 17C2 17 2 17.008 2 18.031V20C2 21 2 21 3 21Z" stroke="#153548" stroke-width="2" stroke-linecap="round" stroke-linejoin="round"/>
<path d="M15 21C18 21 22 20 22 13V5.00003C22 3.75003 21.243 2.98303 20 3.00003H16C14.75 3.00003 14 3.75003 14 4.97203V11C14 12.25 14.75 13 16 13H16.75C16.75 15.25 17 17 14 17V20C14 21 14 21 15 21Z" stroke="#153548" stroke-width="2" stroke-linecap="round" stroke-linejoin="round"/>
</g>
</svg>

<svg width="24" height="24" fill="none" xmlns="http://www.w3.org/2000/svg"><path d="M3 21c3 0 7-1 7-8V5c0-1.25-.756-2.017-2-2H4c-1.25 0-2 .75-2 1.972V11c0 1.25.75 2 2 2 1 0 1 0 1 1v1c0 1-1 2-2 2s-1 .008-1 1.031V20c0 1 0 1 1 1Zm12 0c3 0 7-1 7-8V5c0-1.25-.757-2.017-2-2h-4c-1.25 0-2 .75-2 1.972V11c0 1.25.75 2 2 2h.75c0 2.25.25 4-2.75 4v3c0 1 0 1 1 1Z" opacity=".5" stroke="#153548" stroke-width="2" stroke-linecap="round" stroke-linejoin="round"/></svg>
